X: 1
T: the Banks of Avonmore
T: the Peerie Weerie
T: Blackwater Foot
C: trad. Scotland
R: reel
K: G
M: 4/4
L: 1/8
dc !segno!|:\
BG ~G2 G3c | BG GA Bd gd |\
BG ~G2 G3B | AG FG AB cd :|\
Bd ~d2 d3c | Bd ef gf gd |
Bd ~d2 d3B | AG FG AB cd ||\
Bd ~d2 d3c | Bd ef gf ga |\
bg af gf ec | AG FG AB c"^d.S."d |]
